public/avatar/hat/259.svg

<svg xmlns:xlink="http://www.w3.org/1999/xlink" height="92.9" width="100.7" xmlns="http://www.w3.org/2000/svg"><use height="25.5" transform="translate(20.25 39.15)" width="37.5" xlink:href="#a"/><defs><g id="a" fill-rule="evenodd"><path d="M11.9-5.5q1.3.6-1.7 7.5L11.8.85q1.8-1.05 2.5-.6 1.1.65-1.75 4.6L15.2 3.7l3.65.1q1.3 1.7-4.45 4.85l1.55-.15q1.65-.05 1.85.4.3.75-3.5 3.2l-.75 1.9-4.1-7.65L4.6 3.5l-7.95-.7-9.25 5.85-1.75 5.7-.25-2.1v-1q-3.5-1-3.45-2.4.05-.85 1.6-.75l1.55.3q-3.95-2.5-3.45-4 .3-.95 3.15 0l2.8 1.1-1.3-2.2Q-14.9.95-14.45.4q.45-.55 2.2.4l1.6 1-1.25-3.25q-1.15-3.35-.5-4.05.65-.7 3.35 2.05l2.6 2.95-.4-2.75q-.25-2.8.45-2.95.7-.15 2.25 2.3l1.45 2.5.65-4.6q.9-4.6 2-4.6Q1.1-10.6 2-6.35l.7 4.25 1.25-1.95Q5.35-6 6.05-6q1.1 0 .6 5.1L8.8-3.45q2.3-2.45 3.1-2.05" fill="#4c1b00" transform="translate(18.4 10.6)"/><path d="M4-2.15Q5.65-5.4 6-5.3q.4.15-.2 3.75L5.15 2l-2.7-.85L4-2.15m6.9 4.8Q13.5.6 13.75.85q.4.4-3.55 5.65L8.3 4.7q1.25-1.05 2.6-2.05m1.85 8.7-.5-1.85 4.9-.3q.1.4-4.4 2.15m-16.8-13.5 1.55 3.3-2.75.85-.65-3.55q-.55-3.6-.2-3.75.4-.1 2.05 3.15m-6.2 8.65-1.95-2.65q-1.9-2.75-1.6-3 .25-.25 2.9 1.8l2.55 2.05-1.9 1.8m-2.55 4.85-4.4-2.15 4.9.3-.5 1.85" fill="#a84d04" transform="translate(18.4 10.6)"/><path d="M.15.15q5.3 0 9.35 5.05 2.05 2.55 3.05 5.05Q5.9 2.95.15 2.95q-3.6 0-8.35 3.4-2.35 1.7-4 3.4.95-2.4 3-4.8Q-5.15.15.15.15" fill="#ce5f05" transform="translate(18.4 10.6)"/><path d="M.25 1.05q1.55 0 2.05 1.9L.15 6.25l-2.1-3.5.5-.85q.7-.85 1.7-.85m-10.45 6.2-1.65 3.7q0 .85-.7 2.5-.7 1.7-1.05 1.4-1.5-1.2.15-4.85 1.45-3.3 4.6-5.85L-6 2.25l-4.2 5m15.8-5 2.85 1.9Q11.6 6.7 13.05 10q1.6 3.7.15 4.85-.35.3-1.05-1.4-.7-1.65-.7-2.5l-1.7-3.7-4.15-5" fill="#ce5f05" transform="translate(18.4 10.6)"/><path d="M0-9.85q.65 0 1.55 6L2.3 2.1h-4.55l.75-5.95q.9-6 1.5-6m8.05 8.6q3.15-3.8 3.6-3.5.75.45-3.35 9.3l-3.3-2 3.05-3.8" fill="#ce5f05" transform="translate(18.4 10.6)"/><path d="M8.05-1.25q3.15-3.8 3.6-3.5.75.45-3.35 9.3l-3.3-2 3.05-3.8M11.9 9.2l-1.5-2.8L14.2 5q3.8-1.3 4-.9.35.6-6.3 5.1M-8.35-1.35l3.05 3.8-3.3 2L-10.55 0q-1.85-4.5-1.4-4.8.45-.3 3.6 3.45m-3.9 10.85-3-2.1q-3-2.2-2.8-2.55.2-.35 3.7.85l3.45 1.25-1.35 2.55" fill="#ce5f05" transform="translate(18.4 10.6)"/><path d="M5.2 2.4 5 1.55 2.6.7l-.1.85-.15-1.4 2.15.4 1.35.85-.65 1m-10.4.25-.65-1 1.6-.95L-2.1.25l-.15 1.45-.1-.9-2.65 1-.2.85" fill="#4c1b00" transform="translate(18.4 10.6)"/><path d="m2.55 6.3 2.3-2.5L9.4 6.15l-6.85.15m-7.1-2.5 2.35 2.5-6.9-.15 4.55-2.35" fill="#ce5f05" transform="translate(18.4 10.6)"/><path d="M.05-9Q2.3.75-.2 1.65q-1 .4.25-10.65M11.1-3.85Q8.95 3.75 6.45 3q-1-.25 4.65-6.85m6.2 8.45q-4 4.55-5.65 2.55-.45-.5 2.6-1.65 3.1-1.2 3.05-.9m-28.4-8.3q.7.1 2.75 2.95Q-6.1 2.4-7.25 3.6q-.7.75-3.85-7.3m-6.25 9q.5-.35 3.1.65 2.8 1.1 2.35 2.65-.25 1-5.45-3.3" fill="#f9914b" transform="translate(18.4 10.6)"/></g></defs></svg>

<?xml version="1.0" encoding="UTF-8" standalone="no"?>
<svg xmlns:xlink="http://www.w3.org/1999/xlink" height="92.9px" width="100.7px" xmlns="http://www.w3.org/2000/svg">
  <g transform="matrix(1.0, 0.0, 0.0, 1.0, 38.65, 49.75)">
    <use height="25.5" transform="matrix(1.0, 0.0, 0.0, 1.0, -18.4, -10.6)" width="37.5" xlink:href="#shape0"/>
  </g>
  <defs>
    <g id="shape0" transform="matrix(1.0, 0.0, 0.0, 1.0, 18.4, 10.6)">
      <path d="M11.9 -5.5 Q13.2 -4.9 10.2 2.0 L11.8 0.85 Q13.6 -0.2 14.3 0.25 15.4 0.9 12.55 4.85 L15.2 3.7 18.85 3.8 Q20.15 5.5 14.4 8.65 L15.95 8.5 Q17.6 8.45 17.8 8.9 18.1 9.65 14.3 12.1 L13.55 14.0 9.45 6.35 4.6 3.5 -3.35 2.8 -12.6 8.65 -14.35 14.35 -14.6 12.25 -14.6 11.25 Q-18.1 10.25 -18.05 8.85 -18.0 8.0 -16.45 8.1 L-14.9 8.4 Q-18.85 5.9 -18.35 4.4 -18.05 3.45 -15.2 4.4 L-12.4 5.5 -13.7 3.3 Q-14.9 0.95 -14.45 0.4 -14.0 -0.15 -12.25 0.8 L-10.65 1.8 -11.9 -1.45 Q-13.05 -4.8 -12.4 -5.5 -11.75 -6.2 -9.05 -3.45 L-6.45 -0.5 -6.85 -3.25 Q-7.1 -6.05 -6.4 -6.2 -5.7 -6.35 -4.15 -3.9 L-2.7 -1.4 -2.05 -6.0 Q-1.15 -10.6 -0.05 -10.6 1.1 -10.6 2.0 -6.35 L2.7 -2.1 3.95 -4.05 Q5.35 -6.0 6.05 -6.0 7.15 -6.0 6.65 -0.9 L8.8 -3.45 Q11.1 -5.9 11.9 -5.5" fill="#4c1b00" fill-rule="evenodd" stroke="none"/>
      <path d="M4.0 -2.15 Q5.65 -5.4 6.0 -5.3 6.4 -5.15 5.8 -1.55 L5.15 2.0 2.45 1.15 4.0 -2.15" fill="#a84d04" fill-rule="evenodd" stroke="none"/>
      <path d="M10.9 2.65 Q13.5 0.6 13.75 0.85 14.15 1.25 10.2 6.5 L8.3 4.7 Q9.55 3.65 10.9 2.65" fill="#a84d04" fill-rule="evenodd" stroke="none"/>
      <path d="M12.75 11.35 L12.25 9.5 17.15 9.2 Q17.25 9.6 12.75 11.35" fill="#a84d04" fill-rule="evenodd" stroke="none"/>
      <path d="M-4.05 -2.15 L-2.5 1.15 -5.25 2.0 -5.9 -1.55 Q-6.45 -5.15 -6.1 -5.3 -5.7 -5.4 -4.05 -2.15" fill="#a84d04" fill-rule="evenodd" stroke="none"/>
      <path d="M-10.25 6.5 L-12.2 3.85 Q-14.1 1.1 -13.8 0.85 -13.55 0.6 -10.9 2.65 L-8.35 4.7 -10.25 6.5" fill="#a84d04" fill-rule="evenodd" stroke="none"/>
      <path d="M-12.8 11.35 L-17.2 9.2 -12.3 9.5 -12.8 11.35" fill="#a84d04" fill-rule="evenodd" stroke="none"/>
      <path d="M0.15 0.15 Q5.45 0.15 9.5 5.2 11.55 7.75 12.55 10.25 5.9 2.95 0.15 2.95 -3.45 2.95 -8.2 6.35 -10.55 8.05 -12.2 9.75 -11.25 7.35 -9.2 4.95 -5.15 0.15 0.15 0.15" fill="#ce5f05" fill-rule="evenodd" stroke="none"/>
      <path d="M0.25 1.05 Q1.8 1.05 2.3 2.95 L0.15 6.25 -1.95 2.75 -1.45 1.9 Q-0.75 1.05 0.25 1.05" fill="#ce5f05" fill-rule="evenodd" stroke="none"/>
      <path d="M-10.2 7.25 L-11.85 10.95 Q-11.85 11.8 -12.55 13.45 -13.25 15.15 -13.6 14.85 -15.1 13.65 -13.45 10.0 -12.0 6.7 -8.85 4.15 L-6.0 2.25 -10.2 7.25" fill="#ce5f05" fill-rule="evenodd" stroke="none"/>
      <path d="M5.6 2.25 L8.45 4.15 Q11.6 6.7 13.05 10.0 14.65 13.7 13.2 14.85 12.85 15.15 12.15 13.45 11.45 11.8 11.45 10.95 L9.75 7.25 5.6 2.25" fill="#ce5f05" fill-rule="evenodd" stroke="none"/>
      <path d="M0.0 -9.85 Q0.65 -9.85 1.55 -3.85 L2.3 2.1 -2.25 2.1 -1.5 -3.85 Q-0.6 -9.85 0.0 -9.85" fill="#ce5f05" fill-rule="evenodd" stroke="none"/>
      <path d="M8.05 -1.25 Q11.2 -5.05 11.65 -4.75 12.4 -4.3 8.3 4.55 L5.0 2.55 8.05 -1.25" fill="#ce5f05" fill-rule="evenodd" stroke="none"/>
      <path d="M8.05 -1.25 Q11.2 -5.05 11.65 -4.75 12.4 -4.3 8.3 4.55 L5.0 2.55 8.05 -1.25" fill="#ce5f05" fill-rule="evenodd" stroke="none"/>
      <path d="M11.9 9.2 L10.4 6.4 14.2 5.0 Q18.0 3.7 18.2 4.1 18.55 4.7 11.9 9.2" fill="#ce5f05" fill-rule="evenodd" stroke="none"/>
      <path d="M-8.35 -1.35 L-5.3 2.45 -8.6 4.45 -10.55 0.0 Q-12.4 -4.5 -11.95 -4.8 -11.5 -5.1 -8.35 -1.35" fill="#ce5f05" fill-rule="evenodd" stroke="none"/>
      <path d="M-12.25 9.5 L-15.25 7.4 Q-18.25 5.2 -18.05 4.85 -17.85 4.5 -14.35 5.7 L-10.9 6.95 -12.25 9.5" fill="#ce5f05" fill-rule="evenodd" stroke="none"/>
      <path d="M5.2 2.4 L5.0 1.55 2.6 0.7 2.5 1.55 2.35 0.15 4.5 0.55 5.85 1.4 5.2 2.4" fill="#4c1b00" fill-rule="evenodd" stroke="none"/>
      <path d="M-5.2 2.65 L-5.85 1.65 -4.25 0.7 -2.1 0.25 -2.25 1.7 -2.35 0.8 -5.0 1.8 -5.2 2.65" fill="#4c1b00" fill-rule="evenodd" stroke="none"/>
      <path d="M2.55 6.3 L4.85 3.8 9.4 6.15 2.55 6.3" fill="#ce5f05" fill-rule="evenodd" stroke="none"/>
      <path d="M-4.55 3.8 L-2.2 6.3 -9.1 6.15 -4.55 3.8" fill="#ce5f05" fill-rule="evenodd" stroke="none"/>
      <path d="M0.05 -9.0 Q2.3 0.75 -0.2 1.65 -1.2 2.05 0.05 -9.0" fill="#f9914b" fill-rule="evenodd" stroke="none"/>
      <path d="M11.1 -3.85 Q8.95 3.75 6.45 3.0 5.45 2.75 11.1 -3.85" fill="#f9914b" fill-rule="evenodd" stroke="none"/>
      <path d="M17.3 4.6 Q13.3 9.15 11.65 7.15 11.2 6.65 14.25 5.5 17.35 4.3 17.3 4.6" fill="#f9914b" fill-rule="evenodd" stroke="none"/>
      <path d="M-11.1 -3.7 Q-10.4 -3.6 -8.35 -0.75 -6.1 2.4 -7.25 3.6 -7.95 4.35 -11.1 -3.7" fill="#f9914b" fill-rule="evenodd" stroke="none"/>
      <path d="M-17.35 5.3 Q-16.85 4.95 -14.25 5.95 -11.45 7.05 -11.9 8.6 -12.15 9.6 -17.35 5.3" fill="#f9914b" fill-rule="evenodd" stroke="none"/>
    </g>
  </defs>
</svg>
